X:1
T:The Two Sisters
M:4/4
L:1/8
K:C
 G/2| G3/2 A/2 B3/2 c/2 d3/2 e/2 d2| c2 A2 B2 G3/2 G/2| G3/2 A/2 B3/2 c/2 d3/2 e/2 d2|\
 c2 A3/2 B/2| G2- G G/2| c3/2 c/2 e3.99999962500005/5.99999925000009 e3.99999962500005/5.99999925000009 e3.99999962500005/5.99999925000009 d3/2 d/2 B3/2 B/2|\
 c3/2 c/2 A3.99999962500005/5.99999925000009 A3.99999962500005/5.99999925000009 A3.99999962500005/5.99999925000009 B3.99999962500005/5.99999925000009 B3.99999962500005/5.99999925000009 B3.99999962500005/5.99999925000009 G2|\
 c2 e2 d2 B3/2 B/2| d3/2 d/2 c3/2 A/2 G4| B3/2 B/2 c3/2 c/2 d- b2 d|\
c-a cB-g z||
